src/assets/img/icons/duotone-icons/Home/Bed.svg

<?xml version="1.0" encoding="UTF-8"?>
<svg width="24px" height="24px" viewBox="0 0 24 24" version="1.1" xmlns="http://www.w3.org/2000/svg" xmlns:xlink="http://www.w3.org/1999/xlink">
    <!-- Generator: Sketch 52.2 (67145) - http://www.bohemiancoding.com/sketch -->
    <title>Stockholm-icons / Home / Bed</title>
    <desc>Created with Sketch.</desc>
    <g id="Stockholm-icons-/-Home-/-Bed" stroke="none" stroke-width="1" fill="none" fill-rule="evenodd">
        <rect id="bound" x="0" y="0" width="24" height="24"></rect>
        <path d="M4,22 L2,22 C2,19.2385763 4.23857625,18 7,18 L17,18 C19.7614237,18 22,19.2385763 22,22 L20,22 C20,20.3431458 18.6568542,20 17,20 L7,20 C5.34314575,20 4,20.3431458 4,22 Z" id="Path-61" fill="#335EEA" opacity="0.3"></path>
        <rect id="Rectangle-137" fill="#335EEA" x="1" y="14" width="22" height="6" rx="1"></rect>
        <path d="M13,13 L11,13 L11,12 C11,11.4477153 10.5522847,11 10,11 L6,11 C5.44771525,11 5,11.4477153 5,12 L5,13 L4,13 C3.44771525,13 3,12.5522847 3,12 L3,8 C3,6.8954305 3.8954305,6 5,6 L19,6 C20.1045695,6 21,6.8954305 21,8 L21,12 C21,12.5522847 20.5522847,13 20,13 L19,13 L19,12 C19,11.4477153 18.5522847,11 18,11 L14,11 C13.4477153,11 13,11.4477153 13,12 L13,13 Z" id="Combined-Shape" fill="#335EEA" opacity="0.3"></path>
    </g>
</svg>

<svg width="24" height="24" viewBox="0 0 24 24" xmlns="http://www.w3.org/2000/svg"><g fill="none" fill-rule="evenodd"><path d="M0 0h24v24H0z"/><path d="M4 22H2c0-2.761 2.239-4 5-4h10c2.761 0 5 1.239 5 4h-2c0-1.657-1.343-2-3-2H7c-1.657 0-3 .343-3 2z" fill="#335EEA" opacity=".3"/><rect fill="#335EEA" x="1" y="14" width="22" height="6" rx="1"/><path d="M13 13h-2v-1a1 1 0 00-1-1H6a1 1 0 00-1 1v1H4a1 1 0 01-1-1V8a2 2 0 012-2h14a2 2 0 012 2v4a1 1 0 01-1 1h-1v-1a1 1 0 00-1-1h-4a1 1 0 00-1 1v1z" fill="#335EEA" opacity=".3"/></g></svg>
